actions/22x22-dark/tool-measure.svg

<svg xmlns="http://www.w3.org/2000/svg" viewBox="0 0 22 22">
 <defs id="defs3051">
   <style type="text/css" id="current-color-scheme">
     .ColorScheme-Text {
       color:#f2f2f2;
     }
     </style>
 </defs>
   <path
      style="fill:currentColor;fill-opacity:1;stroke:none"
      d="m3 3v7h1 15v-1-5-1h-15zm1 1h1 1v2h1v-2h1v3h1v-3h1v2h1v-2h1v2h1v-2h1v3h1v-3h2 1v5h-14v-2zm2.7070312 9-3 3 3 3zm9.2929688 0v6l3-3z"
      class="ColorScheme-Text" />
</svg>

<svg xmlns="http://www.w3.org/2000/svg" viewBox="0 0 22 22">
  <defs id="defs3051">
    <style type="text/css" id="current-color-scheme">
      .ColorScheme-Text {
        color:#f2f2f2;
      }
      </style>
  </defs>
 <path 
    style="fill:currentColor;fill-opacity:1;stroke:none" 
    d="M 3 3 L 3 10 L 4 10 L 19 10 L 19 9 L 19 4 L 19 3 L 4 3 L 3 3 z M 4 4 L 5 4 L 6 4 L 6 6 L 7 6 L 7 4 L 8 4 L 8 7 L 9 7 L 9 4 L 10 4 L 10 6 L 11 6 L 11 4 L 12 4 L 12 6 L 13 6 L 13 4 L 14 4 L 14 7 L 15 7 L 15 4 L 17 4 L 18 4 L 18 9 L 4 9 L 4 7 L 4 4 z M 6.7070312 13 L 3.7070312 16 L 6.7070312 19 L 6.7070312 13 z M 16 13 L 16 19 L 19 16 L 16 13 z "
    class="ColorScheme-Text"
    />  
</svg>
